assets/web/icons/mobile.svg

<svg width="24" height="24" viewBox="0 0 24 24" fill="none" xmlns="http://www.w3.org/2000/svg">
<path d="M7 23C6.45 23 5.97917 22.8042 5.5875 22.4125C5.19583 22.0208 5 21.55 5 21V3C5 2.45 5.19583 1.97917 5.5875 1.5875C5.97917 1.19583 6.45 1 7 1H17C17.55 1 18.0208 1.19583 18.4125 1.5875C18.8042 1.97917 19 2.45 19 3V21C19 21.55 18.8042 22.0208 18.4125 22.4125C18.0208 22.8042 17.55 23 17 23H7ZM7 18H17V6H7V18Z" fill="currentColor"/>
</svg>

<svg xmlns="http://www.w3.org/2000/svg" width="24" height="24" fill="currentColor" viewBox="0 0 24 24">
  <path fill="currentColor" d="M7 23c-.55 0-1.02-.196-1.412-.587A1.926 1.926 0 0 1 5 21V3c0-.55.196-1.02.588-1.413A1.926 1.926 0 0 1 7 1h10c.55 0 1.02.196 1.413.587.39.393.587.863.587 1.413v18c0 .55-.196 1.02-.587 1.413A1.926 1.926 0 0 1 17 23H7Zm0-5h10V6H7v12Z"/>
</svg>
